src/helpers/heroicons/outline/hand-raised.svg

<svg width="24" height="24" viewBox="0 0 24 24" fill="none" xmlns="http://www.w3.org/2000/svg">
<path d="M10.05 4.575C10.05 3.70515 9.34486 3 8.47501 3C7.60516 3 6.90001 3.70515 6.90001 4.575L6.9 7.575M10.05 4.575L10.05 3.075C10.05 2.20515 10.7552 1.5 11.625 1.5C12.4949 1.5 13.2 2.20515 13.2 3.075L13.2 4.575M10.05 4.575L10.125 10.5M13.2 11.25V4.575M13.2 4.575C13.2 3.70515 13.9052 3 14.775 3C15.6449 3 16.35 3.70515 16.35 4.575V15M6.9 7.575C6.9 6.70515 6.19485 6 5.325 6C4.45515 6 3.75 6.70515 3.75 7.575V15.75C3.75 19.4779 6.77208 22.5 10.5 22.5H12.5179C13.9103 22.5 15.2456 21.9469 16.2302 20.9623L17.9623 19.2302C18.9469 18.2456 19.5 16.9103 19.5 15.5179L19.5031 13.494C19.5046 13.3209 19.5701 13.1533 19.7007 13.0227C20.3158 12.4076 20.3158 11.4104 19.7007 10.7953C19.0857 10.1802 18.0884 10.1802 17.4733 10.7953C16.7315 11.5371 16.3578 12.5111 16.3531 13.4815M6.9 7.575V12M13.17 16.318C13.5599 15.9281 14.0035 15.6248 14.477 15.4079C15.0701 15.1362 15.71 15.0003 16.35 15M16.3519 15H16.35"  stroke-width="1.5" stroke-linecap="round" stroke-linejoin="round"/>
</svg>

<svg xmlns="http://www.w3.org/2000/svg" fill="none" viewBox="0 0 24 24" stroke-width="1.5" stroke="currentColor" aria-hidden="true" data-slot="icon">
  <path stroke-linecap="round" stroke-linejoin="round" d="M10.05 4.575a1.575 1.575 0 1 0-3.15 0v3m3.15-3v-1.5a1.575 1.575 0 0 1 3.15 0v1.5m-3.15 0 .075 5.925m3.075.75V4.575m0 0a1.575 1.575 0 0 1 3.15 0V15M6.9 7.575a1.575 1.575 0 1 0-3.15 0v8.175a6.75 6.75 0 0 0 6.75 6.75h2.018a5.25 5.25 0 0 0 3.712-1.538l1.732-1.732a5.25 5.25 0 0 0 1.538-3.712l.003-2.024a.668.668 0 0 1 .198-.471 1.575 1.575 0 1 0-2.228-2.228 3.818 3.818 0 0 0-1.12 2.687M6.9 7.575V12m6.27 4.318A4.49 4.49 0 0 1 16.35 15m.002 0h-.002"/>
</svg>
